dhis-2/dhis-support/dhis-support-system/src/main/resources/SVGs/cardiogram_positive.svg

<svg width="48" height="48" viewBox="0 0 48 48" fill="none" xmlns="http://www.w3.org/2000/svg">
<path fill-rule="evenodd" clip-rule="evenodd" d="M24.0288 4.97266C22.6288 4.97416 21.4768 6.07414 21.4098 7.47262H19.3118C18.7228 7.47262 18.2498 7.94782 18.2498 8.53701V8.77531H11.8609C10.8319 8.77531 10.002 9.6031 10.002 10.6329V41.1675C10.002 42.1975 10.8319 43.0265 11.8609 43.0265H36.1386C37.1676 43.0265 37.9956 42.1975 37.9956 41.1675V10.6329C37.9956 9.6031 37.1676 8.77531 36.1386 8.77531H29.7477V8.53701C29.7477 7.94782 29.2747 7.47262 28.6857 7.47262H26.6477C26.5817 6.07414 25.4288 4.97416 24.0288 4.97266ZM23.9858 6.42374C24.6338 6.42444 25.1588 6.94993 25.1578 7.59762C25.1588 8.24532 24.6338 8.77071 23.9858 8.77141C23.3378 8.77181 22.8118 8.24602 22.8118 7.59762C22.8118 6.94913 23.3378 6.42334 23.9858 6.42374ZM19.6558 8.18942H21.4588C21.6548 9.02451 22.2408 9.6805 22.9938 9.99989H22.9788C23.0108 10.0129 23.0428 10.0249 23.0758 10.0369C23.1108 10.0509 23.1458 10.0639 23.1818 10.0759C23.2938 10.1139 23.4088 10.1439 23.5248 10.1659C23.5558 10.1719 23.5878 10.1749 23.6188 10.1799C23.7448 10.2009 23.8718 10.2119 23.9998 10.2149H24.0118C24.1428 10.2129 24.2748 10.2009 24.4038 10.1799C24.4348 10.1749 24.4658 10.1719 24.4958 10.1659C24.6068 10.1439 24.7168 10.1159 24.8238 10.0799C24.8708 10.0649 24.9158 10.0469 24.9608 10.0289C24.9878 10.0199 25.0138 10.0099 25.0408 9.99989H25.0288C25.7818 9.6805 26.3687 9.02451 26.5637 8.18942H28.3107C28.6647 8.18942 28.9507 8.47511 28.9507 8.83001V9.99989V11.0509H19.0158V9.99989V8.83001C19.0158 8.47511 19.3008 8.18942 19.6558 8.18942ZM23.3458 13.3069C23.3798 13.3069 23.4158 13.3169 23.4508 13.3239C23.4718 13.3279 23.4938 13.3279 23.5138 13.3359C23.5188 13.3379 23.5218 13.3359 23.5268 13.3379C23.5638 13.3509 23.5918 13.3739 23.6228 13.3959C23.6368 13.4079 23.6538 13.4119 23.6658 13.4239C23.7038 13.4568 23.7318 13.4968 23.7578 13.5388C23.7628 13.5468 23.7708 13.5528 23.7748 13.5608C23.8018 13.6128 23.8168 13.6728 23.8218 13.7318L23.8238 13.7338C23.8248 13.7418 23.8258 13.7538 23.8258 13.7618L24.2478 18.7868L25.5858 14.9098C25.6698 14.6668 25.9328 14.5388 26.1758 14.6228C26.1947 14.6308 26.2087 14.6448 26.2267 14.6518C26.3137 14.6868 26.3947 14.7438 26.4487 14.8298L27.9567 17.2358L28.7557 16.2228C28.8167 16.1458 28.8977 16.1008 28.9837 16.0738C28.9887 16.0728 28.9947 16.0718 28.9997 16.0698C29.0327 16.0628 29.0617 16.0538 29.0957 16.0528C29.1207 16.0488 29.1437 16.0368 29.1697 16.0368H32.6597C32.9167 16.0368 33.1247 16.2428 33.1247 16.4998C33.1247 16.7568 32.9167 16.9648 32.6597 16.9648H29.3517L28.2767 18.3278C28.1317 18.5118 27.8797 18.5468 27.6837 18.4338C27.6677 18.4258 27.6507 18.4208 27.6367 18.4098C27.6327 18.4058 27.6287 18.4048 27.6247 18.4018C27.5997 18.3828 27.5857 18.3568 27.5657 18.3338C27.5497 18.3128 27.5287 18.3018 27.5157 18.2788L26.1538 16.1048L24.4158 21.1428C24.3528 21.3248 24.1898 21.4438 24.0098 21.4547C24.0078 21.4547 24.0068 21.4568 24.0058 21.4568C23.7498 21.4778 23.5248 21.2888 23.5038 21.0328L23.0718 15.8748L22.0818 18.5268C22.0788 18.5348 22.0748 18.5388 22.0718 18.5468C22.0358 18.6858 21.9448 18.8088 21.8008 18.8648C21.5608 18.9588 21.2928 18.8408 21.1988 18.6018L20.1858 15.9998L19.2558 16.9218C19.1558 17.0208 19.0248 17.0578 18.8958 17.0508C18.8728 17.0548 18.8498 17.0658 18.8258 17.0658H15.3359C15.0789 17.0658 14.8729 16.8588 14.8729 16.6018C14.8729 16.3448 15.0789 16.1368 15.3359 16.1368H18.7338L20.0158 14.8648C20.0628 14.8178 20.1168 14.7838 20.1758 14.7618C20.1828 14.7578 20.1878 14.7528 20.1948 14.7498C20.4348 14.6568 20.7008 14.7738 20.7948 15.0138L21.6188 17.1248L22.9198 13.6408C22.9218 13.6328 22.9268 13.6248 22.9298 13.6168L22.9318 13.6108C22.9348 13.5998 22.9428 13.5918 22.9468 13.5838C22.9668 13.5408 22.9898 13.4988 23.0208 13.4648C23.0428 13.4418 23.0698 13.4229 23.0958 13.4039C23.1168 13.3899 23.1358 13.3709 23.1598 13.3589C23.1958 13.3399 23.2338 13.3339 23.2728 13.3259C23.2908 13.3219 23.3058 13.3119 23.3238 13.3109C23.3278 13.3099 23.3308 13.3129 23.3338 13.3119C23.3378 13.3119 23.3398 13.3089 23.3438 13.3089L23.3458 13.3069ZM13.9389 23.9997H34.0617V25.3747H13.9389V23.9997ZM13.9389 27.9997H34.0617V29.3746H13.9389V27.9997ZM13.9389 31.9996H34.0617V33.3746H13.9389V31.9996ZM13.9389 35.9996H26.6247V37.3745H13.9389V35.9996Z" fill="#333333"/>
</svg>

<?xml version="1.0" encoding="UTF-8" standalone="no"?>
<!-- Created with Inkscape (http://www.inkscape.org/) -->
<svg id="svg8" xmlns:rdf="http://www.w3.org/1999/02/22-rdf-syntax-ns#" xmlns="http://www.w3.org/2000/svg" xmlns:osb="http://www.openswatchbook.org/uri/2009/osb" height="48" width="48" version="1.1" xmlns:cc="http://creativecommons.org/ns#" viewBox="0 0 12.7 12.7" xmlns:dc="http://purl.org/dc/elements/1.1/">
 <title id="title4753">UIO-icon</title>
 <metadata id="metadata5">
  <rdf:RDF>
   <cc:Work rdf:about="">
    <dc:format>image/svg+xml</dc:format>
    <dc:type rdf:resource="http://purl.org/dc/dcmitype/StillImage"/>
    <dc:title>UIO-icon</dc:title>
    <dc:creator>
     <cc:Agent>
      <dc:title>Joaquín Urbano</dc:title>
     </cc:Agent>
    </dc:creator>
    <dc:rights>
     <cc:Agent>
      <dc:title>GPL</dc:title>
     </cc:Agent>
    </dc:rights>
   </cc:Work>
  </rdf:RDF>
 </metadata>
 <g id="layer1" fill="#333" transform="translate(0,-284.3)">
  <path id="rect4798" d="m24.029 4.9727c-1.4 0.0015-2.552 1.1015-2.619 2.5h-2.098c-0.589 0-1.062 0.4752-1.062 1.0644v0.2383h-6.389c-1.029 0-1.859 0.8278-1.859 1.8576v30.535c0 1.03 0.83 1.859 1.859 1.859h24.278c1.029 0 1.857-0.829 1.857-1.859v-30.535c0-1.0298-0.828-1.8576-1.857-1.8576h-6.391v-0.2383c0-0.5892-0.473-1.0644-1.062-1.0644h-2.038c-0.066-1.3985-1.219-2.4985-2.619-2.5zm-0.043 1.4511c0.648 0.0007 1.173 0.5262 1.172 1.1739 0.001 0.6477-0.524 1.1731-1.172 1.1738-0.648 0.0004-1.174-0.5254-1.174-1.1738 0-0.6485 0.526-1.1743 1.174-1.1739zm-4.33 1.7657h1.803c0.196 0.8351 0.782 1.4911 1.535 1.8105h-0.015c0.032 0.013 0.064 0.025 0.097 0.037 0.035 0.014 0.07 0.027 0.106 0.039 0.112 0.038 0.227 0.068 0.343 0.09 0.031 0.006 0.063 0.009 0.094 0.014 0.126 0.021 0.253 0.032 0.381 0.035h0.012c0.131-0.002 0.263-0.014 0.392-0.035 0.031-0.005 0.062-0.008 0.092-0.014 0.111-0.022 0.221-0.05 0.328-0.086 0.047-0.015 0.092-0.033 0.137-0.051 0.027-0.009 0.053-0.019 0.08-0.029h-0.012c0.753-0.3194 1.34-0.9754 1.535-1.8105h1.747c0.354 0 0.64 0.2857 0.64 0.6406v1.1699 1.051h-9.935v-1.051-1.1699c0-0.3549 0.285-0.6406 0.64-0.6406zm3.69 5.1175c0.034 0 0.07 0.01 0.105 0.017 0.021 0.004 0.043 0.004 0.063 0.012 0.005 0.002 0.008 0 0.013 0.002 0.037 0.013 0.065 0.036 0.096 0.058 0.014 0.012 0.031 0.016 0.043 0.028 0.038 0.033 0.066 0.073 0.092 0.115 0.005 0.008 0.013 0.014 0.017 0.022 0.027 0.052 0.042 0.112 0.047 0.171l0.002 0.002c0.001 0.008 0.002 0.02 0.002 0.028l0.422 5.025 1.338-3.877c0.084-0.243 0.347-0.371 0.59-0.287 0.019 0.008 0.033 0.022 0.051 0.029 0.087 0.035 0.168 0.092 0.222 0.178l1.508 2.406 0.799-1.013c0.061-0.077 0.142-0.122 0.228-0.149 0.005-0.001 0.011-0.002 0.016-0.004 0.033-0.007 0.062-0.016 0.096-0.017 0.025-0.004 0.048-0.016 0.074-0.016h3.49c0.257 0 0.465 0.206 0.465 0.463s-0.208 0.465-0.465 0.465h-3.308l-1.075 1.363c-0.145 0.184-0.397 0.219-0.593 0.106-0.016-0.008-0.033-0.013-0.047-0.024-0.004-0.004-0.008-0.005-0.012-0.008-0.025-0.019-0.039-0.045-0.059-0.068-0.016-0.021-0.037-0.032-0.05-0.055l-1.362-2.174-1.738 5.038c-0.063 0.182-0.226 0.301-0.406 0.312-0.002 0-0.003 0.002-0.004 0.002-0.256 0.021-0.481-0.168-0.502-0.424l-0.432-5.158-0.99 2.652c-0.003 0.008-0.007 0.012-0.01 0.02-0.036 0.139-0.127 0.262-0.271 0.318-0.24 0.094-0.508-0.024-0.602-0.263l-1.013-2.602-0.93 0.922c-0.1 0.099-0.231 0.136-0.36 0.129-0.023 0.004-0.046 0.015-0.07 0.015h-3.49c-0.257 0-0.463-0.207-0.463-0.464s0.206-0.465 0.463-0.465h3.398l1.282-1.272c0.047-0.047 0.101-0.081 0.16-0.103 0.007-0.004 0.012-0.009 0.019-0.012 0.24-0.093 0.506 0.024 0.6 0.264l0.824 2.111 1.301-3.484c0.002-0.008 0.007-0.016 0.01-0.024l0.002-0.006c0.003-0.011 0.011-0.019 0.015-0.027 0.02-0.043 0.043-0.085 0.074-0.119 0.022-0.023 0.049-0.042 0.075-0.061 0.021-0.014 0.04-0.033 0.064-0.045 0.036-0.019 0.074-0.025 0.113-0.033 0.018-0.004 0.033-0.014 0.051-0.015 0.004-0.001 0.007 0.002 0.01 0.001 0.004 0 0.006-0.003 0.01-0.003l0.002-0.002zm-9.407 10.693h20.123v1.375h-20.123v-1.375zm0 4h20.123v1.375h-20.123v-1.375zm0 4h20.123v1.375h-20.123v-1.375zm0 4h12.686v1.375h-12.686v-1.375z" fill-rule="evenodd" fill-opacity=".99505" transform="matrix(.26458 0 0 .26458 0 284.3)"/>
 </g>
</svg>
